X:847
T:Oliver Jack
S:Dick Rutter, Edinburgh
Z:Nigel Gatherer
M:4/4
L:1/8
K:G
Bc | d2 dc B2 ge | d2 dc BGBc | d2 dc B2 ge | d4    d2 :|
B2 | c2 cA B2 BG | A2 AG FGAB | c2 cA BGGB  | A2 d2 G2 :|
<end>
<start>
